X: 18058
T: Humours Of Ballinafad, The
R: jig
M: 6/8
K: Gmajor
|:BAG GED|GAG G2A|BAG GED EAA ABc|
BAG GED|GAG G2A|Bee dBB|cAA ABc:|
|:def gef|gea gdB|def gef|gea g2B|
def gef|gea ged|Bee dBB|cAA ABc:|

